X: 20792
T: Johnny McIljohn's
R: reel
M: 4/4
K: Dmajor
|:FA A2 BAFA|BAFA Bd d2|FA A2 BAFA|BdAF EF D2:|
|:f3 e d3 A|BAFA BAFA|f3 e d3 A|BdAF EF D2:|

